X:1
T:Title
%%score 1 { 2 | 3 }
L:1/8
Q:1/4=100
M:4/4
K:G
V:1 treble nm="Grand Piano, Piano"
V:2 treble nm="Grand Piano, Piano"
V:3 bass 
V:1
 [GB]8 | [GB]4 [FA]4 | [EG]8 | G8 | [EA]4 [^GB]2 [Ac]2 | [GB]4 [FA]4 | G8 |] %7
w: All~things~come~of~|thee,~ O~|Lord;~|and~of~thine~own~|have~ we~ *|giv en~|thee.~|
V:2
 D8 | D4 C4 | B,8 | D8 | E4 D2 E2 | D4 C4 | B,8 |] %7
V:3
 G,8 | G,4 D,4 | E,8 | B,,8 | C,4 B,,2 A,,2 | D,4 D,4 | G,,8 |] %7

